icons/discount.svg

<svg width="24" height="24" viewBox="0 0 24 24" fill="none" xmlns="http://www.w3.org/2000/svg">
<path d="M9 15L15 9" stroke="#1E293B" stroke-width="2" stroke-linecap="round" stroke-linejoin="round"/>
<path d="M8.5 9C8.77614 9 9 8.77614 9 8.5C9 8.22386 8.77614 8 8.5 8C8.22386 8 8 8.22386 8 8.5C8 8.77614 8.22386 9 8.5 9Z" fill="#1E293B" stroke="#1E293B" stroke-width="2" stroke-linecap="round" stroke-linejoin="round"/>
<path d="M15.5 16C15.7761 16 16 15.7761 16 15.5C16 15.2239 15.7761 15 15.5 15C15.2239 15 15 15.2239 15 15.5C15 15.7761 15.2239 16 15.5 16Z" fill="#1E293B" stroke="#1E293B" stroke-width="2" stroke-linecap="round" stroke-linejoin="round"/>
<path d="M4.21002 6.65481C4.21002 6.00641 4.4676 5.38457 4.92608 4.92608C5.38457 4.4676 6.00641 4.21002 6.65481 4.21002H7.76607C8.41161 4.20965 9.0308 3.95399 9.48854 3.49881L10.2664 2.72093C10.4936 2.49245 10.7637 2.31114 11.0612 2.18741C11.3588 2.06369 11.6778 2 12 2C12.3222 2 12.6412 2.06369 12.9387 2.18741C13.2363 2.31114 13.5064 2.49245 13.7336 2.72093L14.5115 3.49881C14.9692 3.95399 15.5884 4.20965 16.2339 4.21002H17.3452C17.9936 4.21002 18.6154 4.4676 19.0739 4.92608C19.5324 5.38457 19.79 6.00641 19.79 6.65481V7.76607C19.7903 8.41161 20.046 9.0308 20.5012 9.48854L21.2791 10.2664C21.5075 10.4936 21.6889 10.7637 21.8126 11.0612C21.9363 11.3588 22 11.6778 22 12C22 12.3222 21.9363 12.6412 21.8126 12.9387C21.6889 13.2363 21.5075 13.5064 21.2791 13.7336L20.5012 14.5115C20.046 14.9692 19.7903 15.5884 19.79 16.2339V17.3452C19.79 17.9936 19.5324 18.6154 19.0739 19.0739C18.6154 19.5324 17.9936 19.79 17.3452 19.79H16.2339C15.5884 19.7903 14.9692 20.046 14.5115 20.5012L13.7336 21.2791C13.5064 21.5075 13.2363 21.6889 12.9387 21.8126C12.6412 21.9363 12.3222 22 12 22C11.6778 22 11.3588 21.9363 11.0612 21.8126C10.7637 21.6889 10.4936 21.5075 10.2664 21.2791L9.48854 20.5012C9.0308 20.046 8.41161 19.7903 7.76607 19.79H6.65481C6.00641 19.79 5.38457 19.5324 4.92608 19.0739C4.4676 18.6154 4.21002 17.9936 4.21002 17.3452V16.2339C4.20965 15.5884 3.95399 14.9692 3.49881 14.5115L2.72093 13.7336C2.49245 13.5064 2.31114 13.2363 2.18741 12.9387C2.06369 12.6412 2 12.3222 2 12C2 11.6778 2.06369 11.3588 2.18741 11.0612C2.31114 10.7637 2.49245 10.4936 2.72093 10.2664L3.49881 9.48854C3.95399 9.0308 4.20965 8.41161 4.21002 7.76607V6.65481" stroke="#1E293B" stroke-width="2" stroke-linecap="round" stroke-linejoin="round"/>
</svg>

<svg
  width="24"
  height="24"
  viewBox="0 0 24 24"
  xmlns="http://www.w3.org/2000/svg"
  fill="none"
  stroke="currentColor"
  stroke-width="2"
  stroke-linecap="round"
  stroke-linejoin="round"
>
  <path d="M9 15l6-6" />
  <path d="M8.5 9a.5.5 0 1 0 0-1 .5.5 0 0 0 0 1z" />
  <path d="M15.5 16a.5.5 0 1 0 0-1 .5.5 0 0 0 0 1z" />
  <path d="M4.21 6.655A2.445 2.445 0 0 1 6.655 4.21h1.111c.646 0 1.265-.256 1.723-.711l.777-.778a2.445 2.445 0 0 1 3.468 0l.777.778c.458.455 1.077.71 1.723.711h1.111a2.445 2.445 0 0 1 2.445 2.445v1.111c0 .646.256 1.265.711 1.723l.778.777a2.446 2.446 0 0 1 0 3.468l-.778.777a2.444 2.444 0 0 0-.711 1.723v1.111a2.445 2.445 0 0 1-2.445 2.445h-1.111c-.646 0-1.265.256-1.723.711l-.777.778a2.445 2.445 0 0 1-3.468 0l-.777-.778a2.444 2.444 0 0 0-1.723-.711H6.655a2.445 2.445 0 0 1-2.445-2.445v-1.111c0-.646-.256-1.265-.711-1.723l-.778-.777a2.444 2.444 0 0 1 0-3.468l.778-.777c.455-.458.71-1.077.711-1.723V6.655" />
</svg>
